svg/Pictogram/pictograms-aem-0052-hydraulic_cylinder_locking_device.svg

<?xml version="1.0" encoding="ISO-8859-1" standalone="yes"?>
<svg height="304.014" width="304.015">
  <metadata>
    <rdf:RDF xmlns:cc="http://web.resource.org/cc/" xmlns:dc="http://purl.org/dc/elements/1.1/" xmlns:rdf="http://www.w3.org/1999/02/22-rdf-syntax-ns#">
      <cc:Work rdf:about="">
        <dc:title></dc:title>
        <dc:description></dc:description>
        <dc:subject>
          <rdf:Bag>
            <rdf:li></rdf:li>
          </rdf:Bag>
        </dc:subject>
        <dc:publisher>
          <cc:Agent rdf:about="http://www.unece.org/trans/danger/publi/ghs/pictograms.html">
            <dc:title>Source: UNECE GHS of Classification and Labeling of Chemicals, Source: AEM Pictorial Database, Source: AEM Pictorial Database, Source: AEM Pictorial Database, Source: AEM Pictorial Database</dc:title>
          </cc:Agent>
        </dc:publisher>
        <dc:creator>
          <cc:Agent>
            <dc:title></dc:title>
          </cc:Agent>
        </dc:creator>
        <dc:rights>
          <cc:Agent>
            <dc:title></dc:title>
          </cc:Agent>
        </dc:rights>
        <dc:date></dc:date>
        <dc:format>image/svg+xml</dc:format>
        <dc:type rdf:resource="http://purl.org/dc/dcmitype/StillImage"/>
        <cc:license rdf:resource="http://en.wikipedia.org/wiki/Public_domain"/>
        <dc:language>en</dc:language>
      </cc:Work>
    </rdf:RDF>
  </metadata>
  <defs><marker id="ArrowEnd" markerHeight="3" markerUnits="strokeWidth" markerWidth="4" orient="auto" refX="0" refY="5" viewBox="0 0 10 10"><path d="M 0 0 L 10 5 L 0 10 z"/></marker><marker id="ArrowStart" markerHeight="3" markerUnits="strokeWidth" markerWidth="4" orient="auto" refX="10" refY="5" viewBox="0 0 10 10"><path d="M 10 0 L 0 5 L 10 10 z"/></marker> </defs>
  <g id="g2958" transform="matrix(1.3532768,0,0,1.3532781,-53.207834,-52.192858)">
    <path d="M 217.819 130.565L 186.253 143.049L 116.257 195.956L 108.042 185.127L 49.9604 229.342L 49.9804 240.678L 105.815 198.206L 116.784 212.659L 62.9644 254.053L 77.7184 254.026L 129.98 214.045L 121.741 203.182L 217.819 130.569" style="stroke:none; fill-rule:evenodd; fill:#000000"/>
    <path d="M 247.304 102.663C 243.14 97.1744 235.308 96.1004 229.819 100.264L 219.878 107.772L 224.636 114.041L 221.854 116.143L 225.292 124.916L 230.116 121.272L 234.991 127.698L 244.901 120.143C 250.39 115.979 251.468 108.151 247.304 102.663zM 239.417 112.916C 237.921 114.049 235.784 113.756 234.651 112.26C 233.515 110.764 233.808 108.627 235.304 107.495C 236.8 106.358 238.937 106.651 240.073 108.147C 241.21 109.643 240.917 111.78 239.417 112.916" style="stroke:none; fill-rule:evenodd; fill:#000000"/>
    <path d="M 123.296 95.2254L 118.886 94.1204L 111.753 121.971L 91.1834 101.85L 87.9834 105.081L 114.187 130.69L 123.296 95.2254" style="stroke:none; fill-rule:evenodd; fill:#000000"/>
    <path d="M 120.663 49.8854C 102.882 69.1204 97.9254 98.1084 110.401 122.877L 113.12 123.866L 114.456 120.838C 102.858 97.8194 107.456 70.8814 123.972 52.9954L 120.663 49.8854" style="stroke:none; fill-rule:evenodd; fill:#000000"/>
    <path d="M 105.003 173.252L 95.6514 149.416L 214.804 102.526L 224.155 126.366L 105.007 173.252L 105.003 173.252zM 141.761 157.803L 153.319 153.241L 122.44 139.776L 110.511 144.483L 141.761 157.803zM 171.636 146.045L 183.194 141.487L 152.315 128.022L 140.382 132.725L 171.632 146.045L 171.636 146.045zM 201.507 134.291L 213.065 129.729L 182.187 116.264L 170.257 120.971L 201.507 134.291" style="stroke:none; fill-rule:evenodd; fill:#000000"/>
    <path d="M 29.6204 265.393L 2.62042 265.393" style="stroke:#000000; stroke-width:0.5; fill:none"/>
    <path d="M 38.6204 274.393L 38.6204 301.393" style="stroke:#000000; stroke-width:0.5; fill:none"/>
    <path d="M 29.6204 38.6204L 2.62042 38.6204" style="stroke:#000000; stroke-width:0.5; fill:none"/>
    <path d="M 38.6204 29.6204L 38.6204 2.62042" style="stroke:#000000; stroke-width:0.5; fill:none"/>
    <path d="M 274.394 38.6204L 301.394 38.6204" style="stroke:#000000; stroke-width:0.5; fill:none"/>
    <path d="M 265.394 29.6204L 265.394 2.62042" style="stroke:#000000; stroke-width:0.5; fill:none"/>
    <path d="M 274.394 265.393L 301.394 265.393" style="stroke:#000000; stroke-width:0.5; fill:none"/>
    <path d="M 265.394 274.393L 265.394 301.393" style="stroke:#000000; stroke-width:0.5; fill:none"/>
  </g>
</svg>

<svg viewBox="0 0 304.01 304.01"><g transform="matrix(1.35328 0 0 1.35328-53.21-52.19)" fill-rule="evenodd"><path d="m217.82 130.56l-31.566 12.484-69.996 52.907-8.215-10.829-58.08 44.22.02 11.336 55.835-42.472 10.969 14.453-53.82 41.39 14.754-.027 52.26-39.981-8.239-10.863 96.08-72.61"/><path d="m247.3 102.66c-4.164-5.489-11.996-6.563-17.485-2.399l-9.941 7.508 4.758 6.269-2.782 2.102 3.438 8.773 4.824-3.644 4.875 6.426 9.91-7.555c5.489-4.164 6.567-11.992 2.403-17.48m-7.887 10.253c-1.496 1.133-3.633.84-4.766-.656-1.136-1.496-.843-3.633.653-4.765 1.496-1.137 3.633-.844 4.769.652 1.137 1.496.844 3.633-.656 4.769"/><path d="m123.3 95.23l-4.41-1.105-7.133 27.851-20.57-20.12-3.2 3.231 26.2 25.609 9.109-35.465"/><path d="m120.66 49.885c-17.781 19.235-22.738 48.22-10.262 72.992l2.719.989 1.336-3.03c-11.598-23.02-7-49.957 9.516-67.843l-3.309-3.11"/><path d="m105 173.25l-9.352-23.836 119.15-46.89 9.351 23.84-119.15 46.886h-.004m36.758-15.449l11.558-4.562-30.879-13.465-11.929 4.707 31.25 13.32m29.875-11.758l11.558-4.558-30.879-13.465-11.933 4.703 31.25 13.32h.004m29.871-11.754l11.558-4.562-30.878-13.465-11.93 4.707 31.25 13.32"/></g></svg>
